X: 14115
T: Frieze Breeches, The
R: jig
M: 6/8
K: Dmajor
FED EFG|AdB cAG|~A3 BAG|FAF GED|
FED EFG|AdB cAG|~F3 GEA|1 DDD D3:|2 DDD D2A||
d2e fed|efd cAG|~A3 BAG|FAF GED|
d2e fed|efd cAG|~F3 GEA|DDD D3:|
DDD =c3|AdB =cAG|ABc ded|ded cAF|
DDD =c3|AdB =cAG|~F3 GEA|1 DDD D3:|2 DDD D2A||
d2e fdd|Add fdd|c2d eAA|fed ecA|
d2e fdd|Add fdd|faf gfe|1 dfe d2A:|2 dfe d2e||
fed ecA|ded cAG|~A3 BAG|FAF GED|
[1fed ecA|ded cAG|~F3 GEA|DDD D3:|
[2fdf ~g3|afd cAG|~F3 GEA|DDD D3:|

